X:1
T: New Knees by Noftall
C:Bruce Shawyer
R:Jig
I:speed 180
K:G
M:6/8
L:1/16
|:D2|G4B2 A4c2|B4G2 A4D2|G4B2 A4c2|B6 d6|
G4B2 A4c2|B4G2 A4D2|E6 F6|G6 G4:|
|:D2|G2A2B2 A2B2c2|B2A2G2 A2F2D2|G2A2B2 A2B2c2|d2B2G2 A4F2|
G2A2B2 A2B2c2|B2A2G2 A2F2D2|E2F2G2 F2G2A2|G6 G4:|
